X:99
T:T061E- Hey my kitten, my kitten
S:Scots Musical Museum, #558
Q:1/4=120
L:1/8
M:9/8
K:Dm
c2A A F A A F A|c2A A F Ac2d|c c A (AF) A AF A|B2G (GA) G B2d||\
c A A (fc) A (fc) A|c A A (fc) A c2d|c A A f A A c A A|\
B2G (GA) GB2d|]\

